X: 666
T: The green groves of Erin
C: anon.
O: Ireland
B: Francis O'Neill: "The Dance Music of Ireland" (1907) no. 666
R: Reel
Z: Transcribed by Frank Nordberg - http://www.musicaviva.com
F: http://www.musicaviva.com/abc/tunes/ireland/oneill-1001/oneill-1001-066
6.abc
M: C|
L: 1/8
K: Amix
A2(cA) eAcA|(G2B)d gdBG|A2(cA) e(AcA)|B(EED) EdcB|A2(cA) eAcA|(G2B)d gdBG
|ABcd eAAc|B(EED) (EA)A2||
eaa(g ea)ag|egg(f eg)gf|eaa(g ea)a(g|ed)ef gedB|eaa(g bg)ag|eggf afge|d(e
ga) b2(ag)|(3(efg) (fa) gedB|]
W:
W:
W: From Musica Viva - http://www.musicaviva.com
W: the Internet center for free sheet music downloads.


